X: 22156
T: L'Air Mignonne
R: barndance
M: 4/4
K: Amajor
V:1 treble
V:2 treble
V:1
|:c>cce cBAB|c>cce cBAB|F3A E3 c|1 BAGA BEAB:|2 BAGB ABce||
V:2
|:a>aab agge|a>aab agge|f>ffe e>ee c|1 BAGA BEAe:|2 ecBA ABcA||
V:1
|:f>ffa fece|f>ffa fecA|F>FFA E3c|1 BAGA BEce:|2 BAGB AEAB||
V:2
|:d>dde dccA|d>dde dccA|f>ffA e>eec|1 BAGA BEce:|2 ecBA AEAe||

